img/icon-learn-saturday.svg

<svg width="63" height="60" viewBox="0 0 63 60" fill="none" xmlns="http://www.w3.org/2000/svg">
<g clip-path="url(#clip0)">
<path d="M43.3536 20.2552C43.3536 13.791 37.8007 8.56624 30.9842 8.66344C24.3013 8.7485 18.9064 14.0219 18.9672 20.3645C19.0036 24.3257 21.13 27.8129 24.3621 29.8785C25.3706 30.5225 25.966 31.5918 25.966 32.7461V34.9454C25.966 35.3342 26.294 35.6379 26.695 35.6379H35.5042C35.9052 35.6379 36.2333 35.322 36.2333 34.9454V32.8311C36.2333 31.6768 36.8408 30.5833 37.8615 29.9514C41.1786 27.8737 43.3536 24.3014 43.3536 20.2552Z" fill="#00A4B5"/>
<path d="M61.3001 20.0729H58.3475V18.8579C58.3475 17.74 57.4362 16.8287 56.3183 16.8287H43.7789C43.1956 14.8603 42.1142 13.062 40.5954 11.5553C38.0559 9.05227 34.6416 7.69139 30.9842 7.74C25.079 7.8129 20.1215 11.6525 18.5662 16.8287H6.01458C4.89672 16.8287 3.98542 17.74 3.98542 18.8579V20.0729H0.9113C0.400972 20.0729 0 20.486 0 20.9842V55.6865C0 58.0681 1.93196 60 4.31349 60H57.8979C60.2795 60 62.2114 58.0681 62.2114 55.6865V20.9842C62.2114 20.4739 61.7983 20.0729 61.3001 20.0729ZM31.0085 9.57475C34.1677 9.52615 37.1203 10.7048 39.3074 12.8554C41.3366 14.8481 42.4423 17.4848 42.4423 20.2552C42.4423 22.0292 41.9684 23.791 41.0814 25.3463C40.8262 25.7837 40.9842 26.3427 41.4216 26.5978C41.8591 26.853 42.418 26.695 42.6731 26.2576C43.4508 24.9089 43.949 23.4265 44.1677 21.9077H53.1956V41.13H35.5164C35.0061 41.13 34.6051 41.5432 34.6051 42.0413C34.6051 42.5517 35.0182 42.9526 35.5164 42.9526H53.5966C54.3742 42.9526 55.0061 42.3208 55.0061 41.5432V21.4824C55.0061 20.7048 54.3742 20.0729 53.5966 20.0729H44.2649C44.2527 19.599 44.2284 19.1252 44.1555 18.6634H56.3062C56.4156 18.6634 56.5006 18.7485 56.5006 18.8579V54.4958H32.0778V42.3937C33.4265 42.3937 34.5201 41.3001 34.5201 39.9514V39.2224C35.3706 38.8457 35.9781 37.983 35.9781 36.9867V36.4763C36.6586 36.2819 37.1567 35.6622 37.1567 34.9332V32.819C37.1567 31.9684 37.6063 31.1786 38.3597 30.7048C38.9915 30.3159 39.5869 29.8542 40.1458 29.356C40.5225 29.0158 40.5589 28.4447 40.2187 28.0681C39.8785 27.6914 39.3074 27.6549 38.9307 27.9952C38.4569 28.4204 37.9344 28.8093 37.3998 29.1495C36.294 29.8421 35.5772 30.9356 35.3949 32.175V18.2746C35.3949 18.0681 35.322 17.8737 35.2005 17.7157L32.0656 13.6938C31.8591 13.4265 31.531 13.2686 31.1908 13.2564C30.8384 13.2564 30.5225 13.4022 30.3038 13.6695L27.0595 17.6914C26.9259 17.8494 26.853 18.0559 26.853 18.2625V32.1385C26.6829 30.9113 25.966 29.7935 24.8724 29.1009C21.7983 27.1325 19.9392 23.8518 19.9028 20.3402C19.8299 14.4836 24.8238 9.64765 31.0085 9.57475ZM28.6634 34.7145V22.2236H30.243V34.7266H28.6634V34.7145ZM32.0778 22.2236H33.5358V34.7266H32.0778V22.2236ZM28.6634 18.5905L29.1616 17.9709H33.062L33.5358 18.5784V20.3888H28.6634V18.5905ZM30.644 16.1483L31.1543 15.5164L31.6525 16.1483H30.644ZM34.1434 36.5492V36.9988C34.1434 37.339 33.8639 37.6185 33.5237 37.6185H28.7971C28.4569 37.6185 28.1774 37.339 28.1774 36.9988V36.5492H34.1434ZM29.6476 39.4289H32.6853V39.9393C32.6853 40.2795 32.4058 40.559 32.0656 40.559H30.243C29.9028 40.559 29.6233 40.2795 29.6233 39.9393V39.4289H29.6476ZM5.82017 18.8579C5.82017 18.7485 5.90522 18.6634 6.01458 18.6634H18.1652C18.1045 19.1252 18.068 19.599 18.0559 20.0729H8.67558C7.92224 20.0729 7.3147 20.6805 7.3147 21.4338V27.1446C7.3147 27.898 7.92224 28.5055 8.67558 28.5055H17.5213C18.0316 28.5055 18.4326 28.0924 18.4326 27.5942C18.4326 27.096 18.0194 26.6829 17.5213 26.6829H9.14945V21.9077H18.1774C18.6634 25.4435 20.729 28.6391 23.8761 30.6562C24.6173 31.13 25.0547 31.9198 25.0547 32.7582V34.9575C25.0547 35.7351 25.6136 36.3791 26.3548 36.5249V37.011C26.3548 38.0073 26.9502 38.8579 27.8129 39.2467V39.9757C27.8129 41.3244 28.9064 42.418 30.2552 42.418V54.5201H5.82017V18.8579ZM60.3888 55.6865C60.3888 57.0596 59.271 58.1774 57.8979 58.1774H4.31349C2.94046 58.1774 1.8226 57.0596 1.8226 55.6865V21.8955H3.98542V54.9939C3.98542 55.723 4.5808 56.3062 5.29769 56.3062H31.1543H57.0109C57.74 56.3062 58.3232 55.7108 58.3232 54.9939V21.8955H60.3888V55.6865Z" fill="#003333"/>
<path d="M17.4605 44.5323C17.0109 44.2528 16.4399 44.2407 15.966 44.4958C15.5043 44.751 15.2126 45.2492 15.2126 45.7838V48.5663C15.2126 49.1009 15.5043 49.5869 15.966 49.8543C16.1847 49.9758 16.4277 50.0365 16.6829 50.0365C16.9502 50.0365 17.2175 49.9636 17.4605 49.8178L19.6962 48.4205C20.1337 48.1532 20.3888 47.6793 20.3888 47.169C20.3888 46.6586 20.1337 46.1969 19.6962 45.9174L17.4605 44.5323ZM17.0352 47.9223V46.4278L18.226 47.169L17.0352 47.9223Z" fill="#003333"/>
<path d="M9.46533 44.1191V50.2187C9.46533 51.5189 10.5224 52.5881 11.8347 52.5881H23.2685C24.5686 52.5881 25.6379 51.531 25.6379 50.2187V44.1191C25.6379 42.819 24.5808 41.7497 23.2685 41.7497H21.6282C21.1178 41.7497 20.7169 42.1628 20.7169 42.661C20.7169 43.1714 21.13 43.5723 21.6282 43.5723H23.2685C23.5601 43.5723 23.8031 43.8153 23.8031 44.107V50.2066C23.8031 50.4982 23.5601 50.7412 23.2685 50.7412H11.8347C11.5431 50.7412 11.3001 50.4982 11.3001 50.2066V44.107C11.3001 43.8153 11.5431 43.5723 11.8347 43.5723H17.91C18.4204 43.5723 18.8213 43.1592 18.8213 42.661C18.8213 42.1507 18.4082 41.7497 17.91 41.7497H11.8347C10.5346 41.7619 9.46533 42.819 9.46533 44.1191Z" fill="#003333"/>
<path d="M35.5164 47.1202H38.3597C38.87 47.1202 39.271 46.7071 39.271 46.2089C39.271 45.7108 38.8578 45.2976 38.3597 45.2976H35.5164C35.0061 45.2976 34.6051 45.7108 34.6051 46.2089C34.6051 46.7071 35.0182 47.1202 35.5164 47.1202Z" fill="#003333"/>
<path d="M41.3001 47.1202H54.1069C54.6172 47.1202 55.0182 46.7071 55.0182 46.2089C55.0182 45.7108 54.6051 45.2976 54.1069 45.2976H41.3001C40.7898 45.2976 40.3888 45.7108 40.3888 46.2089C40.3888 46.7071 40.7898 47.1202 41.3001 47.1202Z" fill="#003333"/>
<path d="M54.0948 49.4532H51.2515C50.7412 49.4532 50.3402 49.8663 50.3402 50.3645C50.3402 50.8748 50.7533 51.2758 51.2515 51.2758H54.0948C54.6051 51.2758 55.0061 50.8627 55.0061 50.3645C55.0182 49.8663 54.6051 49.4532 54.0948 49.4532Z" fill="#003333"/>
<path d="M48.3232 49.4532H35.5164C35.0061 49.4532 34.6051 49.8663 34.6051 50.3645C34.6051 50.8748 35.0182 51.2758 35.5164 51.2758H48.3232C48.8335 51.2758 49.2345 50.8627 49.2345 50.3645C49.2345 49.8663 48.8214 49.4532 48.3232 49.4532Z" fill="#003333"/>
<path d="M8.2381 32.9891H10.085C10.5953 32.9891 10.9963 32.576 10.9963 32.0778C10.9963 31.5674 10.5832 31.1665 10.085 31.1665H8.2381C7.72777 31.1665 7.3268 31.5796 7.3268 32.0778C7.31465 32.576 7.72777 32.9891 8.2381 32.9891Z" fill="#003333"/>
<path d="M13.1956 32.9891H20.8141C21.3244 32.9891 21.7254 32.576 21.7254 32.0778C21.7254 31.5674 21.3122 31.1665 20.8141 31.1665H13.1956C12.6853 31.1665 12.2843 31.5796 12.2843 32.0778C12.2843 32.576 12.6974 32.9891 13.1956 32.9891Z" fill="#003333"/>
<path d="M8.2381 37.9951H10.085C10.5953 37.9951 10.9963 37.582 10.9963 37.0838C10.9963 36.5735 10.5832 36.1725 10.085 36.1725H8.2381C7.72777 36.1725 7.3268 36.5857 7.3268 37.0838C7.31465 37.582 7.72777 37.9951 8.2381 37.9951Z" fill="#003333"/>
<path d="M13.1956 37.9951H23.4143C23.9246 37.9951 24.3256 37.582 24.3256 37.0838C24.3256 36.5735 23.9125 36.1725 23.4143 36.1725H13.1956C12.6853 36.1725 12.2843 36.5857 12.2843 37.0838C12.2843 37.582 12.6974 37.9951 13.1956 37.9951Z" fill="#003333"/>
<path d="M31.1178 3.18348C31.6282 3.18348 32.0291 2.77035 32.0291 2.27218V0.9113C32.0291 0.400972 31.616 0 31.1178 0C30.6075 0 30.2065 0.413123 30.2065 0.9113V2.27218C30.2065 2.7825 30.6197 3.18348 31.1178 3.18348Z" fill="#003333"/>
<path d="M25.0911 3.87608C25.2491 4.20415 25.5771 4.39856 25.9173 4.39856C26.051 4.39856 26.1847 4.37426 26.3183 4.3135C26.7679 4.09479 26.9623 3.54801 26.7436 3.09844L26.1482 1.87122C25.9295 1.42164 25.3827 1.22723 24.9331 1.44595C24.4836 1.66466 24.2892 2.21144 24.5079 2.66101L25.0911 3.87608Z" fill="#003333"/>
<path d="M20.1094 6.70717L21.1665 7.55772C21.3366 7.69138 21.531 7.75213 21.7376 7.75213C22.0049 7.75213 22.2722 7.63062 22.4545 7.41191C22.7704 7.02309 22.7096 6.43986 22.3087 6.12394L21.2515 5.2734C20.8627 4.95748 20.2795 5.01823 19.9636 5.4192C19.6477 5.80802 19.7206 6.39126 20.1094 6.70717Z" fill="#003333"/>
<path d="M35.9417 4.3013C36.0754 4.36206 36.209 4.38636 36.3427 4.38636C36.6829 4.38636 37.011 4.19195 37.1689 3.86388L37.7643 2.63666C37.983 2.18709 37.7886 1.6403 37.339 1.42159C36.8894 1.20288 36.3427 1.39729 36.124 1.84687L35.5286 3.07408C35.2856 3.53581 35.48 4.08259 35.9417 4.3013Z" fill="#003333"/>
<path d="M40.4982 7.75213C40.6926 7.75213 40.8992 7.69138 41.0693 7.55772L42.1264 6.70717C42.5152 6.39126 42.5881 5.82017 42.2722 5.4192C41.9563 5.01823 41.3852 4.95748 40.9842 5.2734L39.9271 6.12394C39.5383 6.43986 39.4654 7.01094 39.7813 7.41191C39.9636 7.63062 40.2309 7.75213 40.4982 7.75213Z" fill="#003333"/>
</g>
<defs>
<clipPath id="clip0">
<rect width="62.2114" height="60" fill="white"/>
</clipPath>
</defs>
</svg>

<?xml version="1.0" encoding="utf-8"?>
<!-- Generator: Adobe Illustrator 23.0.1, SVG Export Plug-In . SVG Version: 6.00 Build 0)  -->
<svg version="1.1" id="Слой_1" xmlns="http://www.w3.org/2000/svg" xmlns:xlink="http://www.w3.org/1999/xlink" x="0px" y="0px"
	 viewBox="0 0 62.2 60" style="enable-background:new 0 0 62.2 60;" xml:space="preserve">
<style type="text/css">
	.st0{fill:none;}
	.st1{fill:#00A4B5;}
	.st2{fill:#003333;}
</style>
<g>
	<rect class="st0" width="62.2" height="60"/>
	<path class="st1" d="M43.4,20.3c0-6.5-5.6-11.7-12.4-11.6C24.3,8.7,18.9,14,19,20.4c0,4,2.2,7.4,5.4,9.5c1,0.6,1.6,1.7,1.6,2.9v2.2
		c0,0.4,0.3,0.7,0.7,0.7h8.8c0.4,0,0.7-0.3,0.7-0.7v-2.1c0-1.2,0.6-2.2,1.6-2.9C41.2,27.9,43.4,24.3,43.4,20.3z"/>
	<path class="st2" d="M61.3,20.1h-3v-1.2c0-1.1-0.9-2-2-2H43.8c-0.6-2-1.7-3.8-3.2-5.3c-2.5-2.5-6-3.9-9.6-3.8
		c-5.9,0.1-10.9,3.9-12.4,9.1H6c-1.1,0-2,0.9-2,2v1.2H0.9C0.4,20.1,0,20.5,0,21v34.7C0,58.1,1.9,60,4.3,60h53.6
		c2.4,0,4.3-1.9,4.3-4.3V21C62.2,20.5,61.8,20.1,61.3,20.1z M31,9.6c3.2,0,6.1,1.1,8.3,3.3c2,2,3.1,4.6,3.1,7.4
		c0,1.8-0.5,3.5-1.4,5.1c-0.3,0.4-0.1,1,0.3,1.3c0.4,0.3,1,0.1,1.3-0.3c0.8-1.3,1.3-2.8,1.5-4.3h9v19.2H35.5c-0.5,0-0.9,0.4-0.9,0.9
		c0,0.5,0.4,0.9,0.9,0.9h18.1c0.8,0,1.4-0.6,1.4-1.4V21.5c0-0.8-0.6-1.4-1.4-1.4h-9.3c0-0.5,0-0.9-0.1-1.4h12.2
		c0.1,0,0.2,0.1,0.2,0.2v35.6H32.1V42.4c1.3,0,2.4-1.1,2.4-2.4v-0.7C35.4,38.8,36,38,36,37v-0.5c0.7-0.2,1.2-0.8,1.2-1.5v-2.1
		c0-0.9,0.4-1.6,1.2-2.1c0.6-0.4,1.2-0.9,1.8-1.3c0.4-0.3,0.4-0.9,0.1-1.3c-0.3-0.4-0.9-0.4-1.3-0.1c-0.5,0.4-1,0.8-1.5,1.2
		c-1.1,0.7-1.8,1.8-2,3V18.3c0-0.2-0.1-0.4-0.2-0.6l-3.1-4c-0.2-0.3-0.5-0.4-0.9-0.4c-0.4,0-0.7,0.1-0.9,0.4l-3.2,4
		c-0.1,0.2-0.2,0.4-0.2,0.6v13.9c-0.2-1.2-0.9-2.3-2-3c-3.1-2-4.9-5.2-5-8.8C19.8,14.5,24.8,9.6,31,9.6z M28.7,34.7V22.2h1.6v12.5
		L28.7,34.7L28.7,34.7z M32.1,22.2h1.5v12.5h-1.5V22.2z M28.7,18.6l0.5-0.6h3.9l0.5,0.6v1.8h-4.9V18.6z M30.6,16.1l0.5-0.6l0.5,0.6
		H30.6z M34.1,36.5V37c0,0.3-0.3,0.6-0.6,0.6h-4.7c-0.3,0-0.6-0.3-0.6-0.6v-0.4H34.1z M29.6,39.4h3v0.5c0,0.3-0.3,0.6-0.6,0.6h-1.8
		c-0.3,0-0.6-0.3-0.6-0.6L29.6,39.4L29.6,39.4z M5.8,18.9c0-0.1,0.1-0.2,0.2-0.2h12.2c-0.1,0.5-0.1,0.9-0.1,1.4H8.7
		c-0.8,0-1.4,0.6-1.4,1.4v5.7c0,0.8,0.6,1.4,1.4,1.4h8.8c0.5,0,0.9-0.4,0.9-0.9s-0.4-0.9-0.9-0.9H9.1v-4.8h9
		c0.5,3.5,2.6,6.7,5.7,8.7c0.7,0.5,1.2,1.3,1.2,2.1V35c0,0.8,0.6,1.4,1.3,1.6V37c0,1,0.6,1.8,1.5,2.2V40c0,1.3,1.1,2.4,2.4,2.4v12.1
		H5.8V18.9z M60.4,55.7c0,1.4-1.1,2.5-2.5,2.5H4.3c-1.4,0-2.5-1.1-2.5-2.5V21.9H4V55c0,0.7,0.6,1.3,1.3,1.3h25.9H57
		c0.7,0,1.3-0.6,1.3-1.3V21.9h2.1V55.7z"/>
	<path class="st2" d="M17.5,44.5c-0.4-0.3-1-0.3-1.5,0c-0.5,0.3-0.8,0.8-0.8,1.3v2.8c0,0.5,0.3,1,0.8,1.3c0.2,0.1,0.5,0.2,0.7,0.2
		c0.3,0,0.5-0.1,0.8-0.2l2.2-1.4c0.4-0.3,0.7-0.7,0.7-1.3c0-0.5-0.3-1-0.7-1.3L17.5,44.5z M17,47.9v-1.5l1.2,0.7L17,47.9z"/>
	<path class="st2" d="M9.5,44.1v6.1c0,1.3,1.1,2.4,2.4,2.4h11.4c1.3,0,2.4-1.1,2.4-2.4v-6.1c0-1.3-1.1-2.4-2.4-2.4h-1.6
		c-0.5,0-0.9,0.4-0.9,0.9c0,0.5,0.4,0.9,0.9,0.9h1.6c0.3,0,0.5,0.2,0.5,0.5v6.1c0,0.3-0.2,0.5-0.5,0.5H11.8c-0.3,0-0.5-0.2-0.5-0.5
		v-6.1c0-0.3,0.2-0.5,0.5-0.5h6.1c0.5,0,0.9-0.4,0.9-0.9c0-0.5-0.4-0.9-0.9-0.9h-6.1C10.5,41.8,9.5,42.8,9.5,44.1z"/>
	<path class="st2" d="M35.5,47.1h2.8c0.5,0,0.9-0.4,0.9-0.9c0-0.5-0.4-0.9-0.9-0.9h-2.8c-0.5,0-0.9,0.4-0.9,0.9
		C34.6,46.7,35,47.1,35.5,47.1z"/>
	<path class="st2" d="M41.3,47.1h12.8c0.5,0,0.9-0.4,0.9-0.9c0-0.5-0.4-0.9-0.9-0.9H41.3c-0.5,0-0.9,0.4-0.9,0.9
		C40.4,46.7,40.8,47.1,41.3,47.1z"/>
	<path class="st2" d="M54.1,49.5h-2.8c-0.5,0-0.9,0.4-0.9,0.9c0,0.5,0.4,0.9,0.9,0.9h2.8c0.5,0,0.9-0.4,0.9-0.9
		C55,49.9,54.6,49.5,54.1,49.5z"/>
	<path class="st2" d="M48.3,49.5H35.5c-0.5,0-0.9,0.4-0.9,0.9c0,0.5,0.4,0.9,0.9,0.9h12.8c0.5,0,0.9-0.4,0.9-0.9
		C49.2,49.9,48.8,49.5,48.3,49.5z"/>
	<path class="st2" d="M8.2,33h1.8c0.5,0,0.9-0.4,0.9-0.9c0-0.5-0.4-0.9-0.9-0.9H8.2c-0.5,0-0.9,0.4-0.9,0.9C7.3,32.6,7.7,33,8.2,33z
		"/>
	<path class="st2" d="M13.2,33h7.6c0.5,0,0.9-0.4,0.9-0.9c0-0.5-0.4-0.9-0.9-0.9h-7.6c-0.5,0-0.9,0.4-0.9,0.9
		C12.3,32.6,12.7,33,13.2,33z"/>
	<path class="st2" d="M8.2,38h1.8c0.5,0,0.9-0.4,0.9-0.9c0-0.5-0.4-0.9-0.9-0.9H8.2c-0.5,0-0.9,0.4-0.9,0.9C7.3,37.6,7.7,38,8.2,38z
		"/>
	<path class="st2" d="M13.2,38h10.2c0.5,0,0.9-0.4,0.9-0.9c0-0.5-0.4-0.9-0.9-0.9H13.2c-0.5,0-0.9,0.4-0.9,0.9
		C12.3,37.6,12.7,38,13.2,38z"/>
	<path class="st2" d="M31.1,3.2c0.5,0,0.9-0.4,0.9-0.9V0.9C32,0.4,31.6,0,31.1,0c-0.5,0-0.9,0.4-0.9,0.9v1.4
		C30.2,2.8,30.6,3.2,31.1,3.2z"/>
	<path class="st2" d="M25.1,3.9c0.2,0.3,0.5,0.5,0.8,0.5c0.1,0,0.3,0,0.4-0.1c0.4-0.2,0.6-0.8,0.4-1.2l-0.6-1.2
		c-0.2-0.4-0.8-0.6-1.2-0.4c-0.4,0.2-0.6,0.8-0.4,1.2L25.1,3.9z"/>
	<path class="st2" d="M20.1,6.7l1.1,0.9c0.2,0.1,0.4,0.2,0.6,0.2c0.3,0,0.5-0.1,0.7-0.3c0.3-0.4,0.3-1-0.1-1.3l-1.1-0.9
		C20.9,5,20.3,5,20,5.4C19.6,5.8,19.7,6.4,20.1,6.7z"/>
	<path class="st2" d="M35.9,4.3c0.1,0.1,0.3,0.1,0.4,0.1c0.3,0,0.7-0.2,0.8-0.5l0.6-1.2c0.2-0.4,0-1-0.4-1.2s-1,0-1.2,0.4l-0.6,1.2
		C35.3,3.5,35.5,4.1,35.9,4.3z"/>
	<path class="st2" d="M40.5,7.8c0.2,0,0.4-0.1,0.6-0.2l1.1-0.9c0.4-0.3,0.5-0.9,0.1-1.3C42,5,41.4,5,41,5.3l-1.1,0.9
		c-0.4,0.3-0.5,0.9-0.1,1.3C40,7.6,40.2,7.8,40.5,7.8z"/>
</g>
</svg>
